!!!!SEGMENT: pl-wtm--r3613_kurpinski-karol-kazimierz--overtura-opery-szarlatan-na-forte-piano.krn
!!!cenid: 18xx:4434
!!!COM: Kurpiński, Karol Kazimierz
!!!COM-rismID: pe30018952
!!!CDT: 1785/03/06-1857/09/18
!!!CNT: Polish
!!!OTL: Overtura Opery Szarlatan na Forte Piano
!!!PDT: 1814
!!!AGN: Secular; Opera
!!!YEC: Copyright 2022 Narodowy Instytut Fryderyka Chopina (https://polishscores.org)
!!!YEM: License CC-BY-4.0 (https://creativecommons.org/licenses/by/4.0)
!!!SMS-siglum: PL-Wtm
!!!SMS-shelfmark: R3613
!!!SMS-variant:
!!!SMS-altvar:
!!!SMS-shelfwork: W
!!!NIFC-rismSourceID: 1001088033
!!!NIFC-rismChildID: 1001088033
!!!NIFC-islandoraID:
!!!URL-pdf-islandora: https://repozytorium.nifc.pl/islandora/object/pl-wtm%3A93993/datastream/PDF/view
!!!URL-scan: https://polish.musicsources.pl/pl/lokalizacje/galeria/rekopisy/7950/1 @EN{Scan on Polish Music Sources Website} @PL{Skany w portalu Dziedzictwo Muzyki Polskiej w otwartym dostępie}
!!!IIIF:
!!!ONB-nifc:
!!!OMD: Molto Vivace
!!!AIN: 2 forte
!!!key: F
**kern	**kern	**dynam
*part2	*part1	*part1
*staff2	*staff1	*
*I"[Forte Piano]	*I"[Forte Piano]	*
*I'	*I'	*
*Iforte	*Iforte	*
*ICklav	*ICklav	*
*clefF4	*clefG2	*
*k[b-]	*k[b-]	*
*F:	*F:	*
*M2/2	*M2/2	*
*met(c|)	*met(c|)	*
=1	=1	=1
*2\right	*2\right	*
!!LO:TX:t=P:problem:all\right:global	!
!	!	!LO:DY:b:rj
2F 2FF\	2ff 2a\	f
(8E\L	(8ee\L	.
8F\)	8ff\)	.
8A'\	8aa'\	.
8A'\J	8aa'\J	.
=2	=2	=2
(8G#X\L	(8gg#X\L	.
8A\)	8aa\)	.
8c'\	8ccc'\	.
8c'\J	8ccc'\J	.
(8Bn\L	(8bbn\L	.
8c\)	8ccc\)	.
8f'\	8fff'\	.
8f'\J	8fff'\J	.
=3	=3	=3
!	!LO:N:vis=4.	!
4d 4B-X\	4ddd\	.
4c 4F\	4ccc 4aa\	.
4d 4B-\	4ddd 4bb-X\	.
4c 4F\	4ccc 4aa\	.
=4	=4	=4
.	8qqccc/	.
4c 4E\	4bb- 4gg\	.
4c 4F\	4aa 4ff\	.
2r	2r	.
=5	=5	=5
!LO:S:s=1:note:problem:note-level slur	!LO:S:s=1:note:problem:note-level slur	!
[1A (1D	(>[1a (>1f	pp
=6	=6	=6
!LO:S:s=1:note:problem:note-level slur	!LO:S:s=1:note:problem:note-level slur	!
1A_ 1C#X)	1a] 1e)	.
=7	=7	=7
*^	*^	*
2A/]	2Cn\	2f#X/	2e-X\	.
2G/	2BBn\	2g/	2d\	.
=8	=8	=8	=8	=8
!	!	!LO:TX:t=P:problem:LO:N:acc=-n	!	!
2G/	2BB-X\	2enX/	2d\	.
2F/	2AA\	2f/)	2c\	.
*v	*v	*	*	*
*	*v	*v	*
=9	=9	=9
[1G [>1GG	1e [1c	.
!	!	!LO:HP:a
.	.	>
!!LO:LB:g=original
=10	=10	=10
*^	*^	*
!LO:TX:t=P:problem:cała nuta na środku taktu	!	!	!	!
!LO:S:s=1:note:problem:note-level slur	!	!	!LO:TX:t=P:problem:cała nuta na środku taktu	!
2G/]	1GG]	1d	2c\]	.
2F/	.	.	2Bn\	.
*v	*v	*	*	*
*	*v	*v	*
=11	=11	=11
1E 1C	1c	.
=12	=12	=12
1r	1r	.
=13	=13	=13
2G 2GG\	2gg 2b-X\	f
(8F#X\L	(8ff#X\L	.
8G\)	8gg\)	.
8B-'\	8bb-'\	.
8B-'\J	8bb-'\J	.
=14	=14	=14
8A\L	(8aa\L	.
8B-\	8bb-\)	.
8d\	8ddd'\	.
8d\J	8ddd'\J	.
8c#X\L	(8ccc#X\L	.
8d\	8ddd\)	.
8g\	8ggg'\	.
8g\J	8ggg'\J	.
=15	=15	=15
4e-X 4c\	4eee-X\	.
4d 4G\	4ddd 4bb-\	.
4e- 4c\	4eee- 4ccc\	.
4d 4G\	4ddd 4bb-\	.
=16	=16	=16
.	8qqddd/	.
4d 4F#X\	4ccc 4aa\	.
4d 4G\	4bb- 4gg\	.
2r	2r	.
=17	=17	=17
[1d 1G	(1b- 1g	p
=18	=18	=18
1d] 1F#X	1dd 1a)	.
=19	=19	=19
*^	*^	*
2d/	2Fn\	2bn/	2a-X\	.
[2c/	2E\	2cc/	2g\	.
=20	=20	=20	=20	=20
2c/]	2E-X\	2a/	2g-X\	.
2B-/	2D\	2b-/	2f\	.
*v	*v	*	*	*
*	*v	*v	*
=21	=21	=21
[1c [>1C	1a [>1f	.
!	!	!LO:HP:a:t=dim
.	.	>
!!LO:LB:g=original
=22	=22	=22
*^	*^	*
!LO:TX:t=P:problem:cała nuta na środku taktu	!	!LO:TX:t=P:problem:cała nuta na środku taktu	!	!
2c/]	1C]	1g	2f\]	.
2B-/	.	.	2e\	.
*v	*v	*	*	*
*	*v	*v	*
=23	=23	=23
4A 4F\	2f/	.
4c 4A 4F\	.	.
4c 4A 4F\	(8e/L	.
.	8f/)	.
4c 4A 4F\	8a'/	.
.	8a'/J	.
=24	=24	=24
4c 4A 4F\	(8g#X\L	.
.	8a\)	.
4c 4A 4F\	8cc'\	.
.	8cc'\J	.
4c 4A 4F\	(8bn\L	.
.	8cc\)	.
4c 4A 4F\	8ff'\	.
.	8ff'\J	.
=25	=25	=25
4c 4A 4F\	(8ee\L	.
.	8ff\J	.
4c 4A 4F\	4aa\)	.
4c 4A 4F\	4r	.
4c 4A 4F\	(8aa\L	.
.	8gg\J	.
=26	=26	=26
4c 4A 4F\	4ff\)	.
4c 4A 4F\	(8ff\L	.
.	8ee\J	.
4c 4A 4F\	4dd\)	.
4c 4A 4F\	8dd\L	.
.	(8cc\J	.
=27	=27	=27
4d 4B- 4F\	2b- 2g/)	rf
4d 4B- 4F\	.	.
4d 4B- 4F\	8f#X/L	.
.	8g/	.
4d 4B- 4F\	8b-/	.
.	8b-/J	.
=28	=28	=28
4d 4B- 4F\	8a/L	.
.	8b-/	.
4d 4B- 4F\	8dd/	.
.	8dd/J	.
4d 4B- 4F\	8cc#X\L	.
.	8dd\	.
4d 4B- 4F\	8gg\	.
.	8gg\J	.
=29	=29	=29
4d 4B- 4F\	8ff#X\L	.
.	8gg\J	.
4d 4B- 4F\	4bb-\	.
4d 4B- 4F\	4r	.
4d 4B- 4F\	(8bb-\L	.
.	8aa\J	.
=30	=30	=30
4d 4B- 4F\	4gg\)	.
4d 4B- 4F\	(8gg\L	.
.	8ffn\J	.
4d 4B- 4F\	4ee\	.
4d 4B- 4F\	8ee\L)	.
.	8dd\J	.
!!LO:LB:g=original
=31	=31	=31
!	!	!LO:DY:b:rj
4e 4B- 4G 4F\	2cc\	rf
4e 4B- 4G 4F\	.	.
4e 4B- 4G 4F\	(8bn\L	.
.	8cc\)	.
4e 4B- 4G 4F\	8ee'\	.
.	8ee'\J	.
=32	=32	=32
4e 4B- 4G 4F\	8dd#X\L	.
.	8ee\	.
4e 4B- 4G 4F\	8gg\	.
.	8gg\J	.
4e 4B- 4G 4F\	8ff#X\L	.
.	8gg\	.
4e 4B- 4G 4F\	8ccc\	.
.	8ccc\J	.
=33	=33	=33
4e 4B- 4G 4F\	(8bbn\L	.
.	8ccc\J	.
4e 4B- 4G 4F\	4eee\)	.
4e 4B- 4G 4F\	4r	.
4e 4B- 4G 4F\	(8eee\L	.
.	8ddd\J	.
=34	=34	=34
4e 4B- 4G 4F\	4ccc\)	.
4e 4B- 4G 4F\	(8ccc\L	.
.	8bb-X\J)	.
4e 4B- 4G 4F\	4aa\	.
4e 4B- 4G 4F\	8aa\L	.
.	8gg\J	.
=35	=35	=35
!	!	!LO:DY:b:rj
2f 2A 2F\	2ff\	ff
8E\L	(8ee\L	.
8F\	8ff\)	.
8A\	8aa'\	.
8A\J	8aa'\J	.
=36	=36	=36
8G#X\L	(8gg#X\L	.
8A\	8aa\)	.
8c\	8ccc'\	.
8c\J	8ccc'\J	.
8Bn\L	8bbn\L	.
8c\	8ccc\	.
8f\	8fff\	.
8f\J	8fff\J	.
=37	=37	=37
4f\	4fff\	.
4c\	4eee 4gg\	.
4d\	4ddd 4ff\	.
4A\	4ccc 4ee\	.
=38	=38	=38
4B-\	4bb- 4dd\	.
4F\	4aa 4cc\	.
4G\	4gg 4b-\	.
4D\	4ff 4a\	.
=39	=39	=39
!	!	!LO:DY:b:t=f.
8G#XL 8E\	2ee 2g#X\	f
8Bn\	.	.
8G# 8E\	.	.
8B\J	.	.
*rep	*	*
8G#L 8E\	(8dd#X\L	.
8B\	8ee\	.
8G# 8E\	8gg#X\)	.
8B\J	8gg#\J	.
*Xrep	*	*
!!LO:PB:g=original
=40	=40	=40
*tremolo	*	*
8G#XL 8E\	(8ff##X\L	.
!	!LO:SIC:v:o=8gg\)	!
8Bn\	8gg#\)	.
8G# 8E\	8bbn'\	.
8B\J	8bb'\J	.
*rep	*	*
8G#L 8E\	(8aa#X\L	.
8B\	8bb\)	.
8G# 8E\	8eee'\	.
8B\J	8eee'\J	.
*Xrep	*	*
=41	=41	=41
!	!	!LO:DY:b:rj
8EL 8AA/	2ccc\	rf
8A/	.	.
8E 8AA/	.	.
8A/J	.	.
*rep	*	*
8EL 8AA/	(8bbn\L	.
8A/	8ccc\)	.
8E 8AA/	8eee'\	.
8A/J	8eee'\J	.
*Xrep	*	*
=42	=42	=42
8EL 8AA/	8gg#X\L	.
8A/	8aa\	.
8E 8AA/	8ccc\	.
8A/J	8ccc\J	.
*rep	*	*
8EL 8AA/	8dd#X\L	.
8A/	8ee\	.
8E 8AA/	8aa\	.
8A/J	8aa\J	.
*Xrep	*	*
=43	=43	=43
!	!	!LO:DY:b:rj
8F#XL 8D\	2dd 2f#X\	rf
8A\	.	.
8F# 8D\	.	.
8A\J	.	.
*rep	*	*
8F#L 8D\	8cc#X\L	.
8A\	8dd\	.
8F# 8D\	8ff#X\	.
8A\J	8ff#\J	.
*Xrep	*	*
=44	=44	=44
!LO:SIC:v:o=8FL 8D\	!	!
8F#L 8D\	(8ee#X\L	.
!	!LO:SIC:v:o=8ff\)	!
8A\	8ff#\)	.
!LO:SIC:v:o=8F 8D\	!	!
8F# 8D\	8aa'\	.
8A\J	8aa'\J	.
*rep	*	*
!LO:SIC:v:o=8FL 8D\	!	!
8F#L 8D\	(8gg#X\L	.
8A\	8aa\)	.
!LO:SIC:v:o=8F 8D\	!	!
8F# 8D\	8ddd'\	.
8A\J	8ddd'\J	.
*Xrep	*	*
*Xtremolo	*	*
=45	=45	=45
4G 4GG\	8bbn\L	.
.	8gg\	.
4r	8ff#X\	.
.	8gg\J	.
!	!	!LO:DY:b=2
2c 2F#X 2D\	8aa\L	rf
.	8bb\	.
.	8ccc\	.
.	8ddd\J	.
=46	=46	=46
4Bn 4G\	8bbn\L	.
.	8gg\	.
4ryy	8ff#X\	.
.	8gg\J	.
!	!	!LO:DY:b=2:t=rf.
2c 2F#X 2D\	8aa\L	rf
.	8bb\	.
.	8ccc\	.
.	8ddd\J	.
=47	=47	=47
4Bn 4G\	8bbn\L	.
.	8gg\	.
4c 4F#X 4D\	8aa\	.
.	8ddd\J	.
4B 4G\	8bb\L	.
.	8gg\	.
4c 4F#X 4D\	8aa\	.
.	8ddd\J	.
!!LO:LB:g=original
=48-	=48	=48
!LO:SIC:v:o=4B-y 4G\	!LO:SIC:v:o=8bb-\L	!
4Bn 4G\	8bbn\L	.
.	8gg\	.
!LO:SIC:v:o=4c 4Fny 4D\	!	!
4c 4F# 4D\	8aa\	.
.	8ddd\J	.
!LO:SIC:v:o=4B- 4G\	!LO:SIC:v:o=8bb-\L	!
4B 4G\	8bb\L	.
.	8gg\	.
!LO:SIC:v:o=4c 4F 4D\	!	!
4c 4F# 4D\	8aa\	.
.	8ddd\J	.
=49	=49	=49
!LO:SIC:v:o=4B- 4G\	!LO:SIC:v:o=4bb-\	!
4Bn 4G\	4bbn\	.
*clefG2	*	*
4r	4r	.
[2dd\	[2ddd^<\	.
=50	=50	=50
(4dd\]	(4ddd\]	.
4bn\	4bbn\	.
4g\	4gg\	.
4a\)	4aa\)	.
=51	=51	=51
!	!	!LO:HP:b:t=dim
(>4f/	(4ff\	>
4d/	4dd\	.
4Bn/	4bn\	.
4c/)	4cc\)	.
=52	=52	=52
(>4d/	(4dd\	.
4G/	4g/	.
4A/)	4a/	.
!	!LO:SIC:v:o=4b-/)	!
4Bn/	4bn/)	.
*clefF4	*	*
=53	=53	=53
4C\	4cc\	.
4e 4c 4G\	4r	.
4e 4c 4G\	4r	.
4e 4c 4G\	8cc\L	.
.	(8dd\J	.
=54	=54	=54
4C\	4ee\)	.
4e 4c 4G\	(8ee\L	.
.	8ff\J	.
4e 4c 4G\	4gg\)	.
4e 4c 4G\	(8gg\L	.
.	8aa\J	.
=55	=55	=55
4C\	4gg\)	.
4e 4c 4G\	4ccc\	.
4e 4c 4G\	4r	.
4e 4c 4G\	4gg|\	.
=56	=56	=56
4C\	(4gg\	.
4e 4c 4G\	4eee\)	.
4e 4c 4G\	4r	.
4e 4c 4G\	4ccc\	.
=57	=57	=57
4F\	4aa|\	.
4f 4c 4A^<\	(8aa\L	.
.	8ccc\J)	.
4E\	4gg\	.
4c 4G^<\	4r	.
=58	=58	=58
4BBn/	4ff\	.
4F 4D^/	(8ff\L	.
.	8gg\J)	.
4C/	4ee\	.
4G 4E^/	4r	.
!!LO:LB:g=original
=59	=59	=59
4D\	4dd\	.
4Bn 4G\	8dd\L	.
.	8bbn\J	.
4D\	8aa\L	.
.	8gg\	.
4c 4A\	8ff#X\	.
.	8aa\J	.
=60	=60	=60
4Bn 4G\	4gg\	.
4B 4G\	4gg\	.
4B 4G\	4gg\	.
4r	4r	.
*clefG2	*	*
=61	=61	=61
!	!LO:TX:b:t=dolce	!
4e 4c/	2ee\	.
4g/	.	.
4e 4c/	(8dd#X\L	.
.	8ee\)	.
4g/	8gg'\	.
.	8gg'\J	.
=62	=62	=62
4f 4Bn/	8cc#X\L	.
.	8dd\	.
4g/	8gg\	.
.	8gg\J	.
4f 4B/	4gg\	.
4g/	4r	.
=63	=63	=63
4e 4c/	2ee\	.
4g/	.	.
4e 4c/	8dd#X\L	.
.	8ee\	.
4g/	8gg\	.
.	8gg\J	.
=64	=64	=64
4f 4Bn/	8cc#X\L	.
.	8dd\	.
4g/	8gg\	.
.	8gg\J	.
4f 4B/	4gg\	.
4g/	4r	.
=65	=65	=65
4e 4c/	2ee\	.
4g/	.	.
4e 4c/	8dd#X\L	.
.	8ee\	.
4g/	8dddn\	.
.	8ccc\J	.
*clefF4	*	*
=66	=66	=66
4F\	8gg#X\L	.
.	8aa\	.
4f\	8ee\	.
.	8ff\J	.
4A 4F\	8cc#X\L	.
.	8dd\	.
4d\	8ff\	.
.	8dd\J	.
=67	=67	=67
4c 4G\	[2ccn\	.
4e\	.	.
4c 4G\	(8cc\L]	.
!	!LO:SIC:v:o=8b-\	!
.	8bn\	.
4e\	8cc\	.
.	8dd\J)	.
!!LO:LB:g=original
=68	=68	=68
4d 4G\	8bn|\L	.
.	(8g\	.
4r	8a\	.
.	8b\J	.
2r	8cc\L	.
.	8cc#X\	.
.	8dd\	.
.	8dd#X\J)	.
=69	=69	=69
4C\	4ee\	.
4e 4c 4G\	4r	.
4e 4c 4G\	4r	.
4e 4c 4G\	(8cc\L	.
.	8dd\J	.
=70	=70	=70
4C\	4ee\)	.
4e 4c 4G\	(8ee\L	.
.	8ff\J)	.
4e 4c 4G\	4gg|\	.
4e 4c 4G\	(8gg\L	.
.	8aa\J)	.
=71	=71	=71
4C\	4gg\	.
4e 4c 4G\	4ccc\	.
4e 4c 4G\	4r	.
4e 4c 4G\	4gg\	.
=72	=72	=72
4C\	(4gg\	.
4e 4c 4G\	4eee\)	.
4e 4c 4G\	4r	.
4e 4c 4G\	4ccc\	.
=73	=73	=73
4F\	4aa\	.
4f 4c 4A\	8aa\L	.
.	8ccc\J	.
4E\	4gg\	.
4c 4G\	4r	.
=74	=74	=74
4BBn/	4ff\	.
4G 4D/	(8ff\L	.
.	8gg\J)	.
4C/	4ee\	.
4G 4E/	4r	.
=75	=75	=75
4D\	4dd\	.
4Bn 4G\	8dd\L	.
.	8bbn\J	.
4D\	8aa\L	.
.	8gg\	.
4c 4A\	8ff#X\	.
.	8aa\J	.
=76	=76	=76
4Bn 4G\	4gg\	.
4B 4G\	4gg\	.
4B 4G\	4gg\	.
4r	4r	.
*clefG2	*	*
!	!LO:TX:b:rj:t=Volti Su	!
!!LO:PB:g=original
=77	=77	=77
4e 4c/	2ee\	.
4g/	.	.
4e 4c/	8dd#X\L	.
.	8ee\	.
4g/	8gg\	.
.	8gg\J	.
=78	=78	=78
4f 4Bn/	8cc#X\L	.
.	8dd\	.
4g/	8gg\	.
.	8gg\J	.
4f 4B/	4gg\	.
4g/	4r	.
=79	=79	=79
4e 4c/	2ee\	.
4g/	.	.
4e 4c/	8dd#X\L	.
.	8ee\	.
4g/	8gg\	.
.	8gg\J	.
=80	=80	=80
4f 4Bn/	8cc#X\L	.
.	8dd\	.
4g/	8gg\	.
.	8gg\J	.
4f 4B/	4gg\	.
4g/	4r	.
=81	=81	=81
4e 4c/	2ee\	.
4g/	.	.
4e 4c/	8dd#X\L	.
.	8ee\	.
4g/	8dddn\	.
.	8ccc\J	.
*clefF4	*	*
=82	=82	=82
4F\	8gg#X\L	.
.	8aa\	.
4f 4A\	8ee\	.
.	8ff\J	.
4F\	8cc#X\L	.
.	8dd\	.
4d 4A\	8ff\	.
.	8dd\J	.
=83	=83	=83
4G\	2ccn\	.
4e 4c\	.	.
.	8qee/	.
4G\	8dd\L	.
.	8cc\	.
4f 4Bn\	8dd\	.
.	8ee\J	.
=84	=84	=84
8CC/L	4cc 4e/	.
8C/	.	.
8CC/	4r	.
8C/J	.	.
*rep	*	*
8CC/L	2r	.
8C/	.	.
8CC/	.	.
8C/J	.	.
*Xrep	*	*
=85	=85	=85
8CC/L	1ff 1a	f
8C/	.	.
8CC/	.	>
8C/J	.	.
*rep	*	*
8CC/L	.	.
8C/	.	.
8CC/	.	.
8C/J	.	]]
*Xrep	*	*
=86	=86	=86
*	*^	*
8CC/L	4ee 4g\	2ryy	.
8C/	.	.	.
8CC/	4r	.	.
8C/J	.	.	.
*rep	*	*	*
8CC/L	(4.bbn/	2ff\	.
8C/	.	.	.
8CC/	.	.	.
8C/J	(<16ccc/LL	.	.
.	16ddd/JJ))	.	p
*Xrep	*	*	*
!!LO:LB:g=original
=87	=87	=87	=87
8CC/L	4ccc/	4ee\	.
8C/	.	.	.
8CC/	4r	4ryy	.
8C/J	.	.	.
*rep	*	*	*
8CC/L	4.dd/	2bn\	.
8C/	.	.	.
8CC/	.	.	.
8C/J	16ee/LL	.	.
.	16ff/JJ	.	.
*Xrep	*	*	*
=88	=88	=88	=88
8CC/L	4ee/	4cc\	.
8C/	.	.	.
8CC/	4r	4ryy	.
8C/J	.	.	.
*rep	*	*	*
8CC/L	2r	2ryy	.
8C/	.	.	.
8CC/	.	.	.
8C/J	.	.	.
*Xrep	*	*	*
*	*v	*v	*
=89	=89	=89
8CC/L	(1aa 1ff	f
8C/	.	.
8CC/	.	.
8C/J	.	.
*rep	*	*
8CC/L	.	>
8C/	.	.
8CC/	.	.
8C/J	.	.
*Xrep	*	*
=90	=90	=90
*	*^	*
8CC/L	4gg 4ee\)	2ryy	]
8C/	.	.	.
8CC/	4r	.	.
8C/J	.	.	.
*rep	*	*	*
8CC/L	4.dd/	(>2bn\	.
8C/	.	.	.
8CC/	.	.	.
8C/J	16ee/LL	.	.
.	16ff/JJ	.	.
*Xrep	*	*	*
=91	=91	=91	=91
8CC/L	4ee/	4cc\)	.
8C/	.	.	.
8CC/	4r	4ryy	.
8C/J	.	.	.
*rep	*	*	*
!	!LO:SIC:v:o=4.bb-/	!	!
8CC/L	4.bbn/	2ff\	.
8C/	.	.	.
8CC/	.	.	.
8C/J	16ccc/LL	.	.
.	16ddd/JJ	.	.
*Xrep	*	*	*
=92	=92	=92	=92
!	!	!	!LO:DY:b:t=f.
2CC/	2ccc/	2ee\	f
8Bn\L	(8bbn\L	2ryy	.
8c\	8ccc\)	.	.
8e\	8eee'\	.	.
8e\J	8eee'\J	.	.
*	*v	*v	*
=93	=93	=93
8G#X\L	8gg#X\L	.
8A\	8aa\	.
8c\	8ccc\	.
8c\J	8ccc\J	.
8E\L	8ee\L	.
8F\	8ff\	.
8A\	8aa\	.
8A\J	8aa\J	.
=94	=94	=94
2D\	2dd\	.
4F 4D\	4fff 4ddd\	.
4F 4D\	4fff 4ddd\	.
=95	=95	=95
4G\	4eee 4ccc\	.
4G\	4eee 4ccc\	.
4G\	4ddd 4bbn\	.
4G\	4ddd 4bb\	.
=96	=96	=96
2c 2C\	2ccc\	.
8Bn\L	8bbn\L	.
8c\	8ccc\	.
8e\	8eee\	.
8e\J	8eee\J	.
!!LO:LB:g=original
=97	=97	=97
8G#X\L	8gg#X\L	.
8A\	8aa\	.
8c\	8ccc\	.
8c\J	8ccc\J	.
8E\L	8ee\L	.
8F\	8ff\	.
8A\	8aa\	.
8A\J	8aa\J	.
=98	=98	=98
2D\	2dd\	.
4F 4D\	4fff 4ddd\	.
4F 4D\	4fff 4ddd\	.
=99	=99	=99
4G\	4eee 4ccc\	.
4G\	4eee 4ccc\	.
4G\	4ddd 4bbn\	.
4G\	4ddd 4bb\	.
=100	=100	=100
4c 4C\	4ccc\	.
8C\L	8c/L	.
8D\J	8d/J	.
8E\L	8e/L	.
8F\	8f/	.
8G\	8g/	.
8A\J	8a/J	.
=101	=101	=101
4G\	8g/L	.
.	8a/	.
4r	8bn/	.
.	8cc/J	.
4G 4D 4BBn 4GG\	8dd\L	.
.	8ee\	.
4r	8ff\	.
.	8dd\J	.
=102	=102	=102
4G 4E 4C\	4cc\	.
8C/L	8c/L	.
8D/J	8d/J	.
8E\L	8e/L	.
8F\	8f/	.
8G\	8g/	.
8A\J	8a/J	.
=103	=103	=103
4G\	8g/L	.
.	8a/	.
4r	8bn/	.
.	8cc/J	.
4G 4D 4BBn 4GG\	8dd\L	.
.	8ee\	.
4r	8ff\	.
.	8dd\J	.
=104	=104	=104
4G 4E 4C\	4cc\	.
4G 4GG\	4bbn 4dd\	.
4G 4C\	4ccc 4ee\	.
4G 4GG\	4bb 4dd\	.
=105	=105	=105
4G 4C\	4ccc 4ee\	.
!	!LO:SIC:v:o=4bb- 4dd\	!
4G 4GG\	4bbn 4dd\	.
4G 4C\	4ccc 4ee\	.
!	!LO:SIC:v:o=4bb- 4dd\	!
4G 4GG\	4bb 4dd\	.
!!LO:LB:g=original
=106	=106	=106
4G 4C\	4ccc 4ee\	.
4r	4r	.
4c 4G 4E 4C\	4ccc 4ee 4cc\	.
4r	4r	.
=107	=107	=107
2c 2G 2E 2C\	2ccc 2ee 2cc\	.
2r	2r	.
=108	=108	=108
!	!	!LO:DY:b:rj
4E-X 4EE-X\	4e-X 4B-X< 4G</	p
4e-X 4B-X 4G\	4r	.
*	*clefF4	*
4e- 4B- 4G\	(2E-X\	.
4e- 4B- 4G\	.	.
=109	=109	=109
!LO:SIC:v:o=4e 4B- 4G\	!	!
4e- 4B- 4G\	2BB-X/	.
!LO:SIC:v:o=4e 4B- 4G\	!	!
4e- 4B- 4G\	.	.
!LO:SIC:v:o=4e 4B- 4G\	!	!
4e- 4B- 4G\	2GG/)	.
!LO:SIC:v:o=4e 4B- 4G\	!	!
4e- 4B- 4G\	.	.
=110	=110	=110
4e-X 4B-X 4G\	4EE-X/	.
4e- 4B- 4G\	4r	.
*	*clefG2	*
4e- 4B- 4G\	([2b-X\	.
4e- 4B- 4G\	.	.
.	.	>
=111	=111	=111
!LO:SIC:v:o=4e 4B- 4G\	!	!
4e- 4B- 4G\	4b-\]	]
!LO:SIC:v:o=4e 4B- 4G\	!	!
4e- 4B- 4G\	4cc\	.
!LO:SIC:v:o=4e 4B- 4G\	!	!
4e- 4B- 4G\	4dd\	.
!LO:SIC:v:o=4e 4B- 4G\	!	!
4e- 4B- 4G\	4ee-X\)	.
=112	=112	=112
!LO:SIC:v:o=(4e 4B- 4A-X\	!LO:SIC:v:o=(4ee\	!
(4e- 4B- 4A-X\	(4ee-\	.
4d 4B- 4A-\)	4dd\)	.
*	*clefF4	*
4d 4B- 4A-\	2F\	.
4d 4B- 4A-\	.	.
=113	=113	=113
!LO:SIC:v:o=4d 4B- 4A\	!	!
4d 4B- 4A-\	(>2D/	.
!LO:SIC:v:o=4d 4B- 4A\	!	!
4d 4B- 4A-\	.	.
!LO:SIC:v:o=4d 4B- 4A\	!	!
4d 4B- 4A-\	2BB-X/)	.
!LO:SIC:v:o=4d 4B- 4A\	!	!
4d 4B- 4A-\	.	.
=114	=114	=114
!LO:SIC:v:o=4d 4B- 4A\	!	!
4d 4B- 4A-\	4FF/	.
!LO:SIC:v:o=4d 4B- 4A\	!	!
4d 4B- 4A-\	4r	>]
*	*clefG2	*
!LO:SIC:v:o=4d 4B- 4A\	!	!
4d 4B- 4A-\	[2cc\	.
!LO:SIC:v:o=4d 4B- 4A\	!	!
4d 4B- 4A-\	.	.
!!LO:LB:g=original
=115	=115	=115
!LO:SIC:v:o=4d 4B- 4A\	!	!
4d 4B- 4A-\	(4cc\]	.
!LO:SIC:v:o=4d 4B- 4A\	!	!
4d 4B- 4A-\	4b-X\	.
!LO:SIC:v:o=4d 4B- 4A\	!	!
4d 4B- 4A-\	4cc\	.
!LO:SIC:v:o=4d 4B- 4A\	!	!
4d 4B- 4A-\	4dd\)	.
=116	=116	=116
(4f 4B- 4G\	(4ff\	.
4e-X 4B- 4G\)	4ee-X\)	.
*	*clefF4	*
4e-X 4B- 4G\	(2G\	.
4e- 4B- 4G\	.	.
=117	=117	=117
!LO:SIC:v:o=4e 4B- 4G\	!	!
4e- 4B- 4G\	2E-X\	.
!LO:SIC:v:o=4e 4B- 4G\	!	!
4e- 4B- 4G\	.	.
!LO:SIC:v:o=4e 4B- 4G\	!	!
4e- 4B- 4G\	2BB-/	.
!LO:SIC:v:o=4e 4B- 4G\	!	!
4e- 4B- 4G\	.	.
=118	=118	=118
!LO:SIC:v:o=4e 4B- 4G\	!	!
4e- 4B- 4G\	4GG/)	.
!LO:SIC:v:o=4e 4B- 4G\	!	!
4e- 4B- 4G\	4r	.
*	*clefG2	*
!LO:SIC:v:o=4e 4B- 4G\	!	!
4e- 4B- 4G\	[2ee-X\	.s
!LO:SIC:v:o=4e 4B- 4G\	!	!
4e- 4B- 4G\	.	.
.	.	>
=119	=119	=119
4G\	4ee-\]	]
!LO:SIC:v:o=4e 4B- 4G\	!	!
4e- 4B- 4G\	(4ff\	.
!LO:SIC:v:o=4e 4B- 4G\	!	!
4e- 4B- 4G\	4gg\	.
!LO:SIC:v:o=4e 4Bn 4G\	!	!
4e- 4Bn 4G\	4bn\)	.
=120	=120	=120
4A-X\	(4dd\	.
4e-X 4c\	4cc\)	.
*	*clefF4	*
4e- 4c\	(2A-X\	.
4e- 4c\	.	.
=121	=121	=121
!LO:SIC:v:o=4e 4c\	!	!
4e- 4c\	2E-X\)	.
!LO:SIC:v:o=4e 4c\	!	!
4e- 4c\	.	.
!LO:SIC:v:o=4e 4c\	!	!
4e- 4c\	4C/	.
*	*clefG2	*
!LO:SIC:v:o=4e 4c\	!	!
4e- 4c\	4ee-X\	.
=122	=122	=122
4BB-X/	2.b-/	.
(8G\L	.	.
8B-\J	.	.
4e-X\)	.	.
4d 4B- 4G\	(>4g/	.
=123	=123	=123
4BB-/	2.a-X/)	.
(8F\L	.	.
8B-\J)	.	.
4d\	.	.
4d 4B- 4F\	4b-/	.
!!LO:PB:g=original
=124	=124	=124
4BBn/	2g/	.
4d 4Bn 4G\	.	.
4d 4B 4G\	(8f#X/L	.
.	8g/)	.
4d 4B 4G\	8bn'/	.
.	8b'/J	.
=125	=125	=125
!LO:SIC:v:o=4d 4B- 4G\	!	!
4d 4Bn 4G\	(8a#/L	ff
!	!LO:SIC:v:o=8b-/)	!
.	8bn/)	.
!LO:SIC:v:o=4d 4B- 4G\	!	!
4d 4B 4G\	8dd'/	.
.	8dd'/J	.
!LO:SIC:v:o=4d 4B- 4G\	!	!
4d 4B 4G\	(8cc#X\L	.
.	8dd\)	.
!LO:SIC:v:o=4d 4B- 4G\	!	!
4d 4B 4G\	8gg'\	.
.	8gg'\J	.
=126	=126	=126
4d 4Bn 4G\	(8ff#\L	.
.	8gg\J	.
4d 4B 4G\	4bbn\)	.
4BBn/	4r	.
4d 4Bn\	(8ddd\L	.
.	8ccc\J	.
=127	=127	=127
4D\	4bbn\)	.
!LO:SIC:v:o=4d 4B-\	!	!
4d 4Bn\	(8bb\L	.
.	8aa-X\J	.
4G\	4gg\)	.
!LO:SIC:v:o=4d 4B-\	!	!
4d 4B\	(8gg\L	.
.	8ff\J)	.
=128	=128	=128
4C\	2ee-X 2cc\	.
!LO:SIC:v:o=4e 4c-X 4G\	!	!
4e- 4c 4G\	.	.
!LO:SIC:v:o=4e 4c- 4G\	!	!
4e- 4c 4G\	(8bn\L	.
.	8cc\)	.
!LO:SIC:v:o=4e 4c- 4G\	!	!
4e- 4c 4G\	8ee-X'\	.
.	8ee-'\J	.
=129	=129	=129
!LO:SIC:v:o=4e 4c 4G\	!	!
4e- 4c 4G\	(8dd\L	.
!	!LO:SIC:v:o=8ee\)	!
.	8ee-\)	.
!LO:SIC:v:o=4e 4c 4G\	!	!
4e- 4c 4G\	8gg'\	.
.	8gg'\J	.
!LO:SIC:v:o=4e 4c 4G\	!	!
4e- 4c 4G\	(8ff#X\L	.
.	8gg\)	.
!LO:SIC:v:o=4e 4c 4G\	!	!
4e- 4c 4G\	8ccc'\	.
.	8ccc'\J	.
=130	=130	=130
!LO:SIC:v:o=4e 4c 4G\	!	!
4e- 4c 4G\	(8bbn\L	.
.	8ccc\J	.
!LO:SIC:v:o=4e 4c 4G\	!	!
4e- 4c 4G\	4eee-X\)	.
4BB-/	4r	.
!LO:SIC:v:o=4e 4c-X\	!	!
4e- 4c\	(8eee-\L	.
.	8ddd\J	.
=131	=131	=131
4E-X\	4ccc\)	.
!LO:SIC:v:o=4e 4c\	!	!
4e- 4c\	(8ccc\L	.
.	8bb-X\J	.
4G\	4aan\)	.
!LO:SIC:v:o=4e 4c\	!	!
4e- 4c\	8aa\L	.
.	(8gg\J	.
=132	=132	=132
2D\	4ff#X\)	.
.	2dd\	.
2F#X\	.	.
.	(8aa\L	.
.	8gg\J	.
!!LO:LB:g=original
=133	=133	=133
2A\	4ff#X\)	.
.	(8ff#\L	.
.	8ee-X\J)	.
2d\	4dd\	.
.	(8dd\L	.
.	8cc\J)	.
=134	=134	=134
4G\	2b-X\	.
2GG/	.	.
.	2dd\	.
(8B-\L	.	.
8A\J	.	.
=135	=135	=135
4G\)	2gg\	.
(8G\L	.	.
8F\J	.	.
4En\)	2bb-\	.
(8E\L	.	.
8D\J	.	.
=136	=136	=136
2C#X/)	4aa\	.
.	2a/	.
2E/	.	.
.	(8eeen\L	.
.	8ddd\J	.
=137	=137	=137
2A\	4ccc#X\)	.
.	(8ccc#\L	.
.	8bb-X\J	.
2c#X\	4aa\)	.
.	8aa\L	.
.	8gg\J	.
=138	=138	=138
4d\	2ff\	.
2D/	.	.
.	2aa\	.
(8f\L	.	.
8e\J	.	.
=139	=139	=139
4d\)	2ddd\	.
(8d\L	.	.
8c\J	.	.
4Bn\)	2fff\	.
(8B\L	.	.
8A\J	.	.
=140	=140	=140
4G#X\)	4eee\	.
4E\	(8eee\L	.
.	8ddd\J	.
4r	4ccc\)	.
(8e\L	(8ccc\L	.
8d\J	8bbn\J	.
=141	=141	=141
4c\)	4aa\)	.
(8c\L	(8aa\L	.
8B-\J	8gg\J	.
4A\)	4ff\)	.
(8A\L	(8ff\L	.
8G\J)	8ee\J)	.
!!LO:LB:g=original
=142	=142	=142
4F\	4dd\	.
4D\	(8ddd\L	.
.	8ccc\J	.
4r	4bbn\)	.
(8d\L	(8bb\L	.
8c\J	8aa\J	.
=143	=143	=143
4Bn\)	4gg\)	.
(8B\L	(8gg\L	.
8A\J	8ff\J	.
4G\)	4ee\)	.
(8G\L	(8ee\L	.
8F\J	8dd\J)	.
=144	=144	=144
4E\)	4cc\	.
4C\	(8ccc\L	.
.	8bbn\J)	.
4r	4aa\	.
8c\L	(8aa\L	.
8Bn\J	8gg\J	.
=145	=145	=145
4A\	4ff\)	.
8A\L	(8ff\L	.
8G\J	8ee\J	.
4F\	4dd\)	.
8F\L	(8dd\L	.
8E\J	8cc\J	.
=146	=146	=146
!	!LO:N:vis=2	!
4D\	4bn\)	.
2d 2D^<\	2b 2a 2f/	.
8dL 8D\	8bL 8a 8f/	.
8dJ 8D\	8bJ 8a 8f/	.
=147	=147	=147
!	!LO:SIC:v:o=4b- 4a 4f/	!
4d 4D\	4bn 4a 4f/	.
2d 2D^<\	2cc 2a 2f#X/	.
8dL 8D\	8ccL 8a 8f#/	.
8dJ 8D\	8ccJ 8a 8f#/	.
=148	=148	=148
!	!LO:SIC:v:o=4cc 4a 4f/	!
4d 4D\	4cc 4a 4f#/	.
2c#X 2C#X^<\	2cc#X 2a#X 2f#X/	.
8c#L 8C#\	8cc#L 8a# 8f#/	.
8c#J 8C#\	8cc#J 8a# 8f#/	.
=149	=149	=149
!LO:SIC:v:o=4c 4C\	!LO:SIC:v:o=4cc 4a 4f/	!
4c# 4C#\	4cc# 4a# 4f#/	.
!LO:SIC:v:o=2c 2C^<\	!	!
2c# 2C#^<\	2cc#X 2g#X 2e#X/	.
4r	8ddd-XL 8dd-X\	.
.	8ddd-J 8dd-\	.
!!LO:LB:g=original
=150	=150	=150
8FL 8D-X\	2.ddd-X 2.dd-X\	ff
8A-X\	.	.
8F 8D-\	.	.
8A-\J	.	.
*rep	*	*
8FL 8D-\	.	>
8A-\	.	.
8F 8D-\	4ccc 4cc\	]]
8A-\J	.	.
*Xrep	*	*
=151	=151	=151
8FL 8D-X\	4bbn 4bn\	.
8A-X\	.	.
8F 8D-\	4bb 4b\	.
8A-\J	.	.
*rep	*	*
8FL 8D-\	4bb 4b\	.
8A-\	.	.
8F 8D-\	4r	.
8A-\J	.	.
*Xrep	*	*
=152	=152	=152
!	!	!LO:DY:b:rj:t=rf.
8FL 8D-X\	2.ddd-X 2.dd-X\	rf
8A-X\	.	.
8F 8D-\	.	.
8A-\J	.	.
*rep	*	*
8FL 8D-\	.	.
8A-\	.	.
8F 8D-\	4ccc 4cc\	>
8A-\J	.	.
*Xrep	*	*
=153	=153	=153
8FL 8D-X\	4bbn 4bn\	]
8A-X\	.	.
8F 8D-\	4bb 4b\	.
8A-\J	.	.
*rep	*	*
8FL 8D-\	4bb 4b\	.
8A-\	.	.
8F 8D-\	4r	.
8A-\J	.	.
*Xrep	*	*
=154	=154	=154
!	!	!LO:DY:b:t=rf.
8FL 8D-X\	2.ddd-X 2.dd-X\	rfz
8A-X\	.	.
8F 8D-\	.	.
8A-\J	.	.
*rep	*	*
8FL 8D-\	.	.
8A-\	.	.
8F 8D-\	4ccc 4cc\	>
8A-\J	.	.
*Xrep	*	*
=155	=155	=155
8D-X\L	4bbn 4bn\	]
8d-X\	.	.
8D-\	4bb 4aa-X 4b\	.
8d-\J	.	.
*rep	*	*
8D-\L	4bb 4gg 4b\	.
8d-\	.	.
8D-\	4bb 4ff 4b\	.
8d-\J	.	.
*Xrep	*	*
=156	=156	=156
8C\L	4ccc 4ee 4cc\	.
8c\	.	.
8C\	8.r	.
8c\J	.	.
.	16ccc\	.
*rep	*	*
8C\L	(2ccc 2aa-X\	.
8c\	.	.
8C\	.	.
8c\J	.	.
*Xrep	*	*
=157	=157	=157
8C\L	2bb-X 2gg\	.
8c\	.	.
8C\	.	.
8c\J	.	.
*rep	*	*
8C\L	2aa-X 2ff\	.
8c\	.	.
8C\	.	.
8c\J	.	.
*Xrep	*	*
=158	=158	=158
!	!	!LO:HP:b:t=dim
8C\L	2gg 2ee\	>
8c\	.	.
8C\	.	.
8c\J	.	.
*rep	*	*
8C\L	2aa-X 2ff\	.
8c\	.	.
8C\	.	.
8c\J	.	.
*Xrep	*	*
=159	=159	=159
8C\L	2gg 2ee\	.
8c\	.	.
8C\	.	.
8c\J	.	.
*rep	*	*
8C\L	2ff 2dd\)	.
8c\	.	.
8C\	.	.
8c\J	.	.
*Xrep	*	*
!!LO:LB:g=original
=160	=160	=160
8CC/L	4ee 4cc\	.
8C/	.	.
8CC/	8.r	.
8C/J	.	.
.	16cc\	.
*rep	*	*
!	!LO:SIC:v:o=[2cc-X 2a\	!
8CC/L	[2cc 2a-\	p
8C/	.	.
8CC/	.	.
8C/J	.	.
*Xrep	*	*
=161	=161	=161
*	*^	*
!	!LO:SIC:v:o=1cc-]	!LO:TX:t=P:problem:cała nuta na środku taktu	!
8CC/L	1cc]	2b- 2g\	.
8C/	.	.	.
8CC/	.	.	.
8C/J	.	.	.
*rep	*	*	*
8CC/L	.	(>2a-X 2f\	.
8C/	.	.	.
8CC/	.	.	.
8C/J	.	.	.
*Xrep	*	*	*
=162	=162	=162	=162
8CC/L	2cc/)	2g 2e\	.
8C/	.	.	.
8CC/	.	.	.
8C/J	.	.	.
*rep	*	*	*
8CC/L	(2dd-X^/	2a-X 2f\	.
8C/	.	.	.
8CC/	.	.	.
8C/J	.	.	.
*Xrep	*	*	*
=163	=163	=163	=163
8CC/L	2cc/	2g 2e\	.
8C/	.	.	.
8CC/	.	.	.
8C/J	.	.	.
*rep	*	*	*
8CC/L	2bn/)	2f 2d\	.
8C/	.	.	.
8CC/	.	.	.
8C/J	.	.	.
*Xrep	*	*	*
*	*v	*v	*
=164	=164	=164
!	!	!LO:DY:b:rj
8CC/L	1cc 1e 1c	pp
8C/	.	.
8BBn/	.	.
!	!LO:TX:b:t=ralent	!
8C/J	.	.
8CC/L	.	.
8C/	.	.
8BB/	.	.
8C/J	.	.
=165	=165	=165
8CC/L	1a-X 1f 1c	.
8C/	.	.
!LO:SIC:v:o=8BB-/	!	!
8BBn/	.	.
8C/J	.	.
8CC/L	.	.
8C/	.	.
!LO:SIC:v:o=8BB-/	!	!
8BBs/	.	.
8C/J	.	.
=166	=166	=166
[>1CC	[1g: [>1e: [>1c:	.
=167	=167	=167
!	!LO:TX:b:t=Volti Subito	!
1CC;]	1g] 1e] 1c;]	.
!!LO:PB:g=original
=168	=168	=168
!	!	!LO:DY:b:rj
4FF/	4f/	p
4c 4A\	4r	.
4c 4A\	4r	.
4c 4A\	8f/L	.
.	(8g/J	.
=169	=169	=169
4F\	4a/)	.
4c 4A\	(8a\L	.
.	8b-\J	.
4c 4A\	4cc\)	.
4c 4A\	(8cc\L	.
.	8dd\J)	.
=170	=170	=170
4F\	(4cc\	.
4c 4A\	4ff\)	.
4c 4A\	4r	.
4c 4A\	4cc\	.
=171	=171	=171
4F\	(4cc\	.
4c 4A\	4aa\)	.
4c 4A\	4r	.
4c 4A\	4ff\	.
=172	=172	=172
4B-\	4dd\	.
4f 4d\	8dd\L	.
.	8ff\J	.
4A\	4cc\	.
4f 4c\	4r	.
=173	=173	=173
4E\	4b-\	.
4c 4G\	8b-\L	.
.	8cc\J	.
4F\	4a\	.
4c 4A\	4r	.
=174	=174	=174
4G\	4g\	.
4e 4c\	8g\L	.
.	8ee\J	.
4G\	8dd\L	.
.	8cc\	.
4f 4d\	8bn\	.
.	8dd\J	.
=175	=175	=175
4e 4c\	4cc\	.
4e 4c\	4cc\	.
4e 4c\	4cc\	.
4r	4r	.
*clefG2	*	*
!!LO:LB:g=original
=176	=176	=176
4a 4f/	2aa\	.
4c/	.	.
4a 4f/	8gg#X\L	.
.	8aa\	.
4c/	8ccc\	.
.	8ccc\J	.
=177	=177	=177
4b- 4e/	8ff#X\L	.
.	8gg\	.
4c/	8ccc\	.
.	8ccc\J	.
4b- 4e/	4ccc\	.
4c/	4r	.
=178	=178	=178
4a 4f/	2aa\	.
4c/	.	.
4a 4f/	8gg#X\L	.
.	8aa\	.
4c/	8ccc\	.
.	8ccc\J	.
=179	=179	=179
4b- 4e/	8ff#X\L	.
.	8gg\	.
4c/	8ccc\	.
.	8ccc\J	.
4b- 4e/	4ccc\	.
4c/	4r	.
=180	=180	=180
4a 4f/	2aa\	.
4c/	.	.
*clefF4	*	*
4c 4A\	8gg#X\L	.
.	8aa\	.
4f\	8ee\	.
.	8ff\J	.
=181	=181	=181
4d 4B-\	8cc#X\L	.
.	8dd\	.
4f\	8a\	.
.	8b-\J	.
!	!LO:TX:t=P:problem:mixed beam	!
4d 4B-\	8f#X/L	.
.	8g/	.
4g\	8.bb-^<\	.
.	16gg\Jk	.
=182	=182	=182
4f 4c\	2ff\	.
4a>\	.	.
.	8qgg/	.
4f 4c\	8ff\L	.
.	8ee\	.
4a>\	8ff\	.
.	8gg\J	.
=183	=183	=183
4g> 4c\	8ee/L	.
.	8cc/	.
4r	8dd/	.
.	8ee/J	.
2r	8ff\L	.
.	8ff#X\	.
.	8gg\	.
.	8gg#X\J	.
!!LO:LB:g=original
=184	=184	=184
!	!LO:TX:b:t=Scherzando.	!
4FF/	4aa\	.
4A 4F\	4r	.
4AA/	4r	.
4A 4F\	(8ff\L	.
.	8gg\J	.
=185	=185	=185
4C/	4aa\)	.
4A 4F\	(8aa\L	.
.	8bb-\J	.
4AA/	4ccc\)	.
4A 4F\	(8ccc\L	.
.	8ddd\J	.
=186	=186	=186
4FF/	(4ccc\)	.
4A 4F\	4fff\)	.
4AA/	4r	.
4A 4F\	4ccc\	.
=187	=187	=187
4C/	(4ccc\	.
4A 4F\	4aaa\)	.
4AA/	4r	.
4A 4F\	4fff\	.
=188	=188	=188
4BB-/	4ddd\	.
4B- 4F 4D\	8ddd\L	.
.	8fff\J	.
4AA/	4ccc\	.
4F 4C/	4r	.
=189	=189	=189
4E\	4bb-\	.
4c 4G\	8bb-\L	.
.	8ccc\J	.
4F\	4aa\	.
4c 4A\	4r	.
=190	=190	=190
4G\	4gg\	.
4e 4c\	8gg\L	.
.	8eee\J	.
4G\	8ddd\L	.
.	8ccc\	.
4f 4d\	8bbn\	.
.	8ddd\J	.
=191	=191	=191
4e 4c\	4ccc\	.
4e 4c\	4ccc\	.
4e 4c\	4ccc\	.
4r	4r	.
*clefG2	*	*
!!LO:LB:g=original
=192	=192	=192
4a 4f/	2aa\	.
4cc/	.	.
4a 4f/	8gg#X\L	.
.	8aa\	.
4cc/	8ccc\	.
.	8ccc\J	.
=193	=193	=193
4b- 4e/	8ff#X\L	.
.	8gg\	.
4cc/	8ccc\	.
.	8ccc\J	.
4b- 4e/	4ccc\	.
4cc/	4r	.
=194	=194	=194
4a 4f/	2aa\	.
4cc/	.	.
4a 4f/	8gg#X\L	.
.	8aa\	.
4cc/	8ccc\	.
.	8ccc\J	.
=195	=195	=195
4b- 4e/	8ff#X\L	.
.	8gg\	.
4cc/	8ccc\	.
.	8ccc\J	.
4b- 4e/	4ccc\	.
4cc/	4r	.
=196	=196	=196
4a 4f/	2aa\	.
4cc/	.	.
4c 4A/	8gg\L	.
.	8ff\	.
4f/	8ee\	.
.	8ff\J	.
=197	=197	=197
4d 4B-/	8cc#X\L	.
.	8dd\	.
4f/	8ccn\	.
.	8b-\J	.
!	!LO:TX:t=P:problem:mixed beam	!
4d 4B-/	8a/L	.
.	8g/	.
4g/	8.bb-\	>
.	16gg\Jk	]]
=198	=198	=198
4f 4c/	2ff\	.
4a/	.	.
.	8qaa/	.
4e 4c/	8gg\L	.
.	8ff\	.
4b-/	8gg\	.
.	8aa\J	.
*clefF4	*	*
=199	=199	=199
8FFF/L	4ff\	.
8FF/	.	.
8FFF/	8r	.
8FF/J	8f/	p
*rep	*	*
8FFF/L	(8e/L	.
8FF/	8f/)	.
8FFF/	8f'/	.
8FF/J	8f'/J	.
*Xrep	*	*
!!LO:PB:g=original
=200	=200	=200
8FFF/L	(8f#X/L	.
8FF/	8g/)	.
8FFF/	8g'/	.
8FF/J	8g'/J	.
*rep	*	*
8FFF/L	(8f#/L	.
8FF/	8g/)	.
8FFF/	8g'/	.
8FF/J	8g'/J	.
*Xrep	*	*
=201	=201	=201
!	!LO:TX:t=poco-a-poco-cres=s:problem:text with extention lines	!
8FFF/L	2a 2fn/	<
8FF/	.	.
8FFF/	.	.
8FF/J	.	.
*rep	*	*
8FFF/L	(8g#L 8e/	.
8FF/	8a 8f/)	.
8FFF/	8a 8f'/	.
8FF/J	8aJ 8f'/	.
*Xrep	*	*
=202	=202	=202
8FFF/L	(8aL 8f#/	[[
8FF/	8b- 8g/)	.
8FFF/	8b- 8g'/	.
8FF/J	8b-J 8g'/	.
*rep	*	*
8FFF/L	(8aL 8f#/	.
8FF/	8b- 8g/)	.
8FFF/	8b- 8g'/	.
8FF/J	8b-J 8g'/	.
*Xrep	*	*
=203	=203	=203
8FFF/L	(8bnL 8g#\	.
8FF/	8cc 8a\)	.
8FFF/	8cc 8a'\	.
8FF/J	8ccJ 8a'\	.
*rep	*	*
8FFF/L	(8ccL 8a\	.
8FF/	8cc#X\)	.
8FFF/	8cc# 8a'\	.
8FF/J	8cc#J 8a'\	.
*Xrep	*	*
=204	=204	=204
8FFF/L	8cc#XL 8a\	.
8FF/	8dd 8b-X\	.
8FFF/	8dd 8b-\	.
8FF/J	8ddJ 8b-\	.
*rep	*	*
8FFF/L	8ddL 8b-\	.
8FF/	8ee 8g\	.
8FFF/	8ee 8g\	.
8FF/J	8eeJ 8g\	.
*Xrep	*	*
=205	=205	=205
.	16qqf/LL	.
.	16qqa/JJ	.
8FF/L	2ff\	.
8F/	.	.
8FF/	.	.
8F/J	.	.
*rep	*	*
8FF/L	(8ee\L	.
8F/	8ff\)	.
8FF/	8ff'\	.
8F/J	8ff'\J	.
*Xrep	*	*
=206	=206	=206
8FF/L	(8ff#X\L	.
8F/	8gg\)	.
8FF/	8gg'\	.
8F/J	8gg'\J	.
*rep	*	*
8FF/L	(8ff#\L	.
8F/	8gg\)	.
8FF/	8gg'\	.
8F/J	8gg'\J	.
*Xrep	*	*
=207	=207	=207
8FF/L	2aa 2ffn\	.
8F/	.	.
8FF/	.	.
8F/J	.	.
*rep	*	*
8FF/L	(8gg#L 8ee\	.
8F/	8aa 8ff\)	.
8FF/	8aa 8ff'\	.
8F/J	8aaJ 8ff'\	.
*Xrep	*	*
!!LO:LB:g=original
=208	=208	=208
8FF/L	(8aaL 8ff#X\	.
8F/	8bb- 8gg\)	.
8FF/	8bb- 8gg'\	.
8F/J	8bb-J 8gg'\	.
*rep	*	*
8FF/L	(8aaL 8ff#\	.
8F/	8bb- 8gg\)	.
8FF/	8bb- 8gg'\	.
8F/J	8bb-J 8gg'\	.
*Xrep	*	*
=209	=209	=209
8FF/L	(8bbnL 8gg#X\	.
8F/	8ccc 8aa\)	.
8FF/	8ccc 8aa'\	.
8F/J	8cccJ 8aa'\	.
*rep	*	*
8FF/L	(8cccL 8aa\	.
8F/	8ccc#X 8aa\)	.
8FF/	8ccc# 8aa'\	.
8F/J	8ccc#J 8aa'\	.
*Xrep	*	*
=210	=210	=210
8FF/L	(8ccc#XL 8aa\	.
8F/	8ddd 8bb-X\)	.
8FF/	8ddd 8bb-'\	.
8F/J	8dddJ 8bb-'\	.
*rep	*	*
8FF/L	(8dddL 8bb-\	.
8F/	8eee 8gg\)	.
8FF/	8eee 8gg'\	.
8F/J	8eeeJ 8gg'\	.
*Xrep	*	*
=211	=211	=211
.	16qqff/LL	f
.	16qqaa/JJ	.
!LO:TX:t=P:problem:mixed beam	!	!
8FF/L	4fff\	.
8c\	.	.
8A 8F\	8fff\L	.
8c\J	8fff\J	.
*	*tremolo	*
8AL 8F\	8fff\L	.
8c\	8fff\	.
8A 8F\	8fff\	.
8c\J	8fff\J	.
*	*Xtremolo	*
=212	=212	=212
8B-L 8G 8F\	8eee\L	.
8c\	8ddd\	.
8B- 8G 8F\	8ccc\	.
8c\J	8ddd\J	.
*rep	*	*
8B-L 8G 8F\	8eee\L	.
8c\	8ddd\	.
8B- 8G 8F\	8eee\	.
8c\J	8ccc\J	.
*Xrep	*	*
=213	=213	=213
8AL 8F\	4fff\	.
8c\	.	.
8A 8F\	8fff\L	.
8c\J	8fff\J	.
*rep	*tremolo	*
8AL 8F\	8fff\L	.
8c\	8fff\	.
8A 8F\	8fff\	.
8c\J	8fff\J	.
*Xrep	*Xtremolo	*
=214	=214	=214
8B-L 8G 8F\	8eee\L	.
8c\	8ddd\	.
8B- 8G 8F\	8ccc\	.
8c\J	8ddd\J	.
*rep	*	*
8B-L 8G 8F\	8eee\L	.
8c\	8ddd\	.
8B- 8G 8F\	8eee\	.
8c\J	8ccc\J	.
*Xrep	*	*
=215	=215	=215
4A 4F\	4fff\	.
4c\	4eee 4gg\	.
4d\	4ddd 4ff\	.
4A\	4ccc 4ee\	.
!!LO:LB:g=original
=216	=216	=216
4B-\	4bb- 4b-\	.
4F\	4aa 4cc\	.
4G\	4gg 4b-\	.
4D\	4ff 4a\	.
=217	=217	=217
2E\	2ee 2g#X\	.
2c#X 2C#X\	2bb- 2ggn 2ee^<\	.
=218	=218	=218
2d 2D\	2aa 2ff#X^<\	.
2Bn 2BBn\	2ddd 2aa-X 2ffn^<\	.
=219	=219	=219
8C\L	2.ccc 2.aan 2.ff\	.
8c\	.	.
8C\	.	.
8c\J	.	.
*rep	*	*
8C\L	.	.
8c\	.	.
8C\	4ccc 4aa 4ff\	.
8c\J	.	.
*Xrep	*	*
=220	=220	=220
8C\L	2.eee 2.bb- 2.gg\	.
8c\	.	.
8C\	.	.
8c\J	.	.
*rep	*	*
8C\L	.	.
8c\	.	.
8C\	4eee 4bb- 4gg\	.
8c\J	.	.
*Xrep	*	*
=221	=221	=221
.	32qqff/LLL	.
.	32qqaa/JJJ	.
4F\	4fff\	.
4c\	4eee 4gg\	.
4d\	4ddd 4ff\	.
4A\	4ccc 4ee\	.
=222	=222	=222
4B-\	4bb- 4dd\	.
4F\	4aa 4cc\	.
4G\	4gg 4b-\	.
4D\	4ff 4a\	.
=223	=223	=223
2E\	2ee 2g#X\	.
2c#X 2C#X\	2bb-X 2ggn 2ee^<\	.
=224	=224	=224
2d 2D\	2aa 2ff#X^<\	.
2Bn 2BBn\	2ddd 2aa-X 2ffn^<\	.
=225	=225	=225
8C\L	2.ccc 2.aan 2.ff\	.
8c\	.	.
8C\	.	.
8c\J	.	.
*rep	*	*
8C\L	.	.
8c\	.	.
8C\	4ccc 4aa 4ff\	.
8c\J	.	.
*Xrep	*	*
!!LO:LB:g=original
=226	=226	=226
8C\L	2.eee 2.bb- 2.gg\	.
8c\	.	.
8C\	.	.
8c\J	.	.
*rep	*	*
8C\L	.	.
8c\	.	.
8C\	4eee 4bb- 4gg\	.
8c\J	.	.
*Xrep	*	*
=227	=227	=227
*	*	*^
[1c#X [>1C#X	[1eee [1aa [>1gg	.	.
!	!	!LO:HP:b=2	!
.	.	>	>
=228	=228	=228	=228
1c#] 1C#;]	1eee] 1aa] 1gg;]	]	]
*	*	*v	*v
=229	=229	=229
!LO:S:s=1:note:problem:note-level slur	!LO:S:s=1:note:problem:note-level slur	!
[1A (1D	[1a (>1f	pp
=230	=230	=230
!LO:S:s=1:note:problem:note-level slur	!LO:S:s=1:note:problem:note-level slur	!
1A_ 1C#X)	1a] 1e)	.
=231	=231	=231
*^	*^	*
2A/]	2Cn\	2f#X/	2e-X\	.
[2G/	2BBn\	2g/	2d\	.
=232	=232	=232	=232	=232
2G/]	2BB-X\	2e/	2d-X\	.
2F/	2AA\	2f/	2c\	.
*v	*v	*	*	*
*	*v	*v	*
=233	=233	=233
[1G 1D 1GG	(>1b- 1d 1B-	.
=234	=234	=234
(1G] 1E 1C	1g 1e 1c)	.
=235	=235	=235
[1F [>1FF)	[1a [>1f [>1c	.
=236	=236	=236
2F] 2FF/]	2a] 2f] 2c/]	.
!	!LO:TX:b:t=Volti Subito.	!
2r	2r	.
!!LO:PB:g=original
=237	=237	=237
!LO:S:s=1:note:problem:note-level slur	!	!
[>1a> (>1d>	([1aa 1ff	.
=238	=238	=238
!LO:S:s=2:note:problem:note-level slur	!	!
!LO:S:s=1:note:problem:note-level slur	!	!
1a>_> (>1c#X>)	1aa] 1ee)	.
=239	=239	=239
!LO:S:s=1:note:problem:note-level slur	!	!
2ee-> 2a>] 2cn>\)	2ff#X/	.
2dd> 2g> 2Bn>\	2gg/	.
=240	=240	=240
2dd-X> 2g> 2B-X>\	2ee/	.
2cc> 2f> 2A>\	2ff/	.
=241	=241	=241
1g>: 1d>: 1G:	1bb-: 1dd: 1b-:	.
=242	=242	=242
1g>: 1e>: 1c:	1gg: 1ee: 1cc:	.
=243	=243	=243
8F\L	2ff\	.
8c\	.	.
8A\	.	.
8c\J	.	.
*rep	*	*
8F\L	(8ee\L	.
8c\	8ff\)	.
8A\	8aa'\	.
8c\J	8aa'\J	.
*Xrep	*	*
=244	=244	=244
8F\L	(8gg#X\L	.
8c\	8aa\)	.
8A\	8ccc'\	.
8c\J	8ccc'\J	.
*rep	*	*
8F\L	(8bbn\L	.
8c\	8ccc\)	.
8A\	8fff'\	.
8c\J	8fff'\J	.
*Xrep	*	*
=245	=245	=245
8F\L	2fff\	.
8c\	.	.
8A\	.	.
8c\J	.	.
*rep	*	*
8F\L	(8eee\L	.
8c\	8fff\)	.
8A\	8ccc'\	.
8c\J	8ccc'\J	.
*Xrep	*	*
=246	=246	=246
8C\L	8bbn\L	.
8c\	8ccc\	.
8A\	8aa\	.
8c\J	8aa\J	.
8EL 8C\	8aa\L	.
8c\	8bb-X\	.
8B-\	8gg\	.
8c\J	8gg\J	.
=247	=247	=247
8F\L	2ff\	.
8c\	.	.
8A\	.	.
8c\J	.	.
*rep	*	*
8F\L	8ee\L	.
8c\	8ff\	.
8A\	8aa\	.
8c\J	8aa\J	.
*Xrep	*	*
=248	=248	=248
8F\L	8gg#X\L	.
8c\	8aa\	.
8A\	8ccc\	.
8c\J	8ccc\J	.
*rep	*	*
8F\L	8bbn\L	.
8c\	8ccc\	.
8A\	8fff\	.
8c\J	8fff\J	.
*Xrep	*	*
!!LO:LB:g=original
=249	=249	=249
8F\L	2fff\	.
8c\	.	.
8A\	.	.
8c\J	.	.
!LO:TX:t=P:problem:mixed beam	!	!
8AA/L	8eee\L	.
8c\	8fff\	.
8A\	8ccc\	.
8c\J	8ccc\J	.
=250	=250	=250
8C\L	8bbn\L	.
8c\	8ccc\	.
8A\	8aa\	.
8c\J	8aa\J	.
!LO:TX:b:t=Sempre piu Presto	!	!
8EL 8C\	8aa\L	.
8c\	8bb-X\	.
8B-\	8gg\	.
8c\J	8gg\J	.
=251	=251	=251
!	!	!LO:DY:b:t=f.
2A 2F\	2ff\	f
(8E\L	(8ee\L	.
8F\)	8ff\)	.
8A'\	8aa'\	.
8A'\J	8aa'\J	.
=252	=252	=252
8G#X\L	8gg#X\L	.
8A\	8aa\	.
8c\	8ccc\	.
8c\J	8ccc\J	.
8Bn\L	8bbn\L	.
8c\	8ccc\	.
8e-X\	8eee-X\	.
8e-\J	8eee-\J	.
=253	=253	=253
!LO:SIC:v:o=2e\	!LO:SIC:v:o=(2eee\	!
2e-\	(2eee-\	.
4d\	4ddd\)	.
4c#X\	4ccc#X\	.
=254	=254	=254
!LO:SIC:v:o=2c\	!LO:SIC:v:o=2ccc\	!
2c#\	2ccc#\	.
4d\	4ddd\	.
4e-X 4E-X\	4eee-X 4ee-X\	.
=255	=255	=255
!LO:SIC:v:o=2e 2E\	!LO:SIC:v:o=(2eee 2ee\	!
2e- 2E-\	(2eee- 2ee-\	.
4d 4D\	4ddd 4dd\)	.
4c#X 4C#X\	4ccc#X 4cc#X\	.
=256	=256	=256
!LO:SIC:v:o=2c 2C\	!LO:SIC:v:o=2ccc 2cc\	!
2c# 2C#\	2ccc# 2cc#\	.
4d 4D\	4ddd 4dd\	.
4A 4AA\	4aa 4a\	.
=257	=257	=257
4B- 4BB-\	4bb- 4b-\	.
4Bn 4BBn\	4bbn 4bn\	.
4c 4C\	4ccc 4cc\	.
4c#X 4C#X\	4ccc#X 4cc#X\	.
=258	=258	=258
4d 4D\	4ddd 4dd\	.
4A 4AA\	4aa 4a\	.
4B- 4BB-\	4bb- 4b-\	.
4Bn 4BBn\	4bbn 4bn\	.
=259	=259	=259
8C\L	4ccc 4cc\	.
8c\	.	.
8C\	4ccc 4cc\	.
8c\J	.	.
*rep	*	*
8C\L	4ccc 4cc\	.
8c\	.	.
8C\	4ccc 4cc\	.
8c\J	.	.
*Xrep	*	*
!!LO:LB:g=original
=260	=260	=260
8C\L	4ccc 4cc\	.
8c\	.	.
8C\	4eee 4ccc 4gg\	.
8c\J	.	.
*rep	*	*
8C\L	4eee 4ccc 4gg\	.
8c\	.	.
8C\	4eee 4ccc 4gg\	.
8c\J	.	.
*Xrep	*	*
=261	=261	=261
4F\	4fff 4ccc 4aa\	.
8F\L	8f/L	.
8G\J	8g/J	.
8A\L	8a/L	.
8B-\	8b-/	.
8c\	8cc/	.
8d\J	8dd/J	.
=262	=262	=262
4c\	8cc\L	.
.	8dd\	.
4r	8ee\	.
.	8ff\J	.
4c 4G 4E 4C\	8gg\L	.
.	8aa\	.
4r	8bb-\	.
.	8gg\J	.
=263	=263	=263
4c 4A 4F\	4ff\	.
8F\L	8f/L	.
8G\J	8g/J	.
8A\L	8a/L	.
8B-\	8b-/	.
8c\	8cc/	.
8d\J	8dd/J	.
=264	=264	=264
4c\	8cc\L	.
.	8dd\	.
4r	8ee\	.
.	8ff\J	.
4c 4G 4E 4C\	8gg\L	.
.	8aa\	.
4r	8bb-\	.
.	8gg\J	.
=265	=265	=265
4c 4A 4F\	4ff\	.
8F\L	8f/L	.
8G\J	8g/J	.
8A\L	8a/L	.
8B-\	8b-/	.
8c\	8cc/	.
8d\J	8dd/J	.
=266	=266	=266
4c\	8cc\L	.
.	8dd\	.
4r	8ee\	.
.	8ff\J	.
4c 4G 4E 4C\	8gg\L	.
.	8aa\	.
4r	8bb-\	.
.	8gg\J	.
=267	=267	=267
4c 4A 4F\	4ff\	.
8F\L	8f/L	.
8G\J	8g/J	.
8A\L	8a/L	.
8B-\	8b-/	.
8c\	8cc/	.
8d\J	8dd/J	.
=268	=268	=268
4c\	8cc\L	.
.	8dd\	.
4r	8ee\	.
.	8ff\J	.
4c 4G 4E 4C\	8gg\L	.
.	8aa\	.
4r	8bb-\	.
.	8gg\J	.
!!LO:LB:g=original
=269	=269	=269
4c 4A 4F\	8ff\L	.
.	8ee\	.
4r	8ff\	.
.	8aa\J	.
4d 4A 4F#X 4D\	8dd\L	.
.	8ee\	.
4r	8ff#X\	.
.	8dd\J	.
=270	=270	=270
4d 4B- 4G\	8gg\L	.
.	8ff#X\	.
4r	8gg\	.
.	8bb-\J	.
4c 4G 4E 4C\	8cc\L	.
.	8dd\	.
4r	8ee\	.
.	8cc\J	.
=271	=271	=271
4c 4A 4F\	8ffn\L	.
.	8ee\	.
4r	8ff\	.
.	8aa\J	.
4d 4A 4F#X 4D\	8dd\L	.
.	8ee\	.
4r	8ff#X\	.
.	8dd\J	.
=272	=272	=272
4d 4B- 4G\	8gg\L	.
.	8ff#X\	.
4r	8gg\	.
.	8bb-\J	.
4c 4G 4E 4C\	8cc\L	.
.	8dd\	.
4r	8ee\	.
.	8cc\J	.
=273	=273	=273
8F\L	8ff\L	.
8E\	8ee\	.
8F\	8ff\	.
8A\J	8aa\J	.
8D\L	8dd\L	.
8E\	8ee\	.
8F#X\	8ff#X\	.
8D\J	8dd\J	.
=274	=274	=274
8G\L	8gg\L	.
8F#X\	8ff#X\	.
8G\	8gg\	.
8B-\J	8bb-\J	.
8E\L	8ee\L	.
8F#\	8ff#\	.
8G#X\	8gg#X\	.
8E\J	8ee\J	.
=275	=275	=275
8A\L	8aa\L	.
8G#X\	8gg#X\	.
8A\	8aa\	.
8c\J	8ccc\J	.
8Fn\L	8ffn\L	.
!LO:SIC:v:o=8G#\	!LO:SIC:v:o=8gg#\	!
8G\	8gg\	.
8A\	8aa\	.
8F\J	8ff\J	.
=276	=276	=276
8B-\L	8bb-\L	.
8A\	8aa\	.
8B-\	8bb-\	.
8d\J	8ddd\J	.
8C/L	8ccc\L	.
8D/	8ddd\	.
8E/	8eee\	.
8C/J	8ccc\J	.
!!LO:LB:g=original
=277	=277	=277
!	!	!LO:DY:b:rj
8CL 8AA 8FF/	2fff\	ff
8F/	.	.
8C 8AA 8FF/	.	.
8F/J	.	.
*rep	*	*
8CL 8AA 8FF/	(8eee\L	.
8F/	8fff\)	.
*	*ped	*
!	!LO:TX:b:t=P:problem:pedal	!
8C 8AA 8FF/	8ccc'\	.
8F/J	8ccc'\J	.
*Xrep	*	*
=278	=278	=278
8CL 8AA 8FF/	(8bbn\L	.
8F/	8ccc\)	.
8C 8AA 8FF/	8aa'\	.
8F/J	8aa'\J	.
*rep	*	*
8CL 8AA 8FF/	(8gg#X\L	.
!	!LO:SIC:v:o=8ccc\)	!
!	!LO:TX:a:t=a:mod=	!
8F/	8aa)	.
8C 8AA 8FF/	8ff'\	.
8F/J	8ff'\J	.
*Xrep	*	*
=279	=279	=279
8CL 8AA 8FF/	(8gg#X\L	.
8F/	8aa\)	.
8C 8AA 8FF/	8ff'\	.
8F/J	8ff'\J	.
*rep	*	*
8CL 8AA 8FF/	(8ee\L	.
8F/	8ff\)	.
8C 8AA 8FF/	8cc'\	.
8F/J	8cc'\J	.
*Xrep	*	*
=280	=280	=280
8CL 8AA 8FF/	(8bn\L	.
8F/	8cc\)	.
8C 8AA 8FF/	8a'\	.
8F/J	8a'\J	.
*rep	*	*
8CL 8AA 8FF/	(8g#X/L	.
8F/	8a/)	.
8C 8AA 8FF/	8f'/	.
8F/J	8f'/J	.
*Xrep	*	*
=281	=281	=281
2F 2C 2AA 2FF/	2f/	.
2r	2r	.
=282	=282	=282
2F 2C 2AA 2FF/	2fff 2ccc 2aa 2ff\	.
2r	2r	.
=283	=283	=283
1C 1AA 1FF	1f 1c< 1A< 1F<	.
=284	=284	=284
1r	1r	.
!	!LO:TX:b:rj:t=Fine	!
==	==	==
*-	*-	*-
!!!system-decoration: {s1,s2}
!!!RDF**kern: > = above
!!!RDF**kern: < = below
!!!RDF**kern: N = linked
!!!RDF**kern: | = vertical stroke
!!!RDF**dynam: > = "dim.", fontstyle= "italic"
!!!ENC: Katarzyna Serwa
!!!END: 2023-09-12
!!!ENC: Andrzej Gręziak
!!!END: 2023-09-10
